X: 1
T:Captain With His Whiskers, Brackley 1
M:4/4
L:1/4
A:Brackley
P:A(AB)6A
K:G
P:A
G>A|BB BB|Bd dB|BA AB |A2 Bd|
ec gf|ed BG|AG GA |G2   ||
P:B
gf|ec cc|c2 fe|dB BB |B2 GB|
dd cB|dc BA|AG G>A|G2  ||
W:
W:Oh! I wish he'd do it now, Oh! I wish he'd do it now,
W:Oh! the captain with his whiskers, Oh! I wish he'd do it now.
